X: 3
T: McGlinchey's
R: reel
M: 4/4
L: 1/8
K: Ador
|:dcBG EAA^G | A2 EF G2 AB| A2 BG G2 cd |eaag a2 ba |
ge e2 aged | c3d B3c |dedB cBAG |1 EAA^G A4 :|2 cAA^G A2 cd ||
|:eccB cedB | AcBG A2 EF | G3A GD D2 | GFGA BdcB |
ABcd ed d2 | ecBA BG G2 | EA^GE ABcd | ea^gb a cd :||
|: ea a2 a2 ^ga |eaa^g e2 dc | dg g2 dgfg | agdB G2 cd |
e3c d3B | cBcA BGED |EAAB cedB | ^de^GB A2 c=d :||


Tune 554	Setting 13518

